X: 31726
T: Pat Clark's
R: reel
M: 4/4
K: Dmajor
|:D2 (3(FED) FAA(c|de)fd gbe(g|fe)df ecA(F|GB)AG EDCE|
D2 (3(FED) FAA(c|de)fd gbe(g|fe)df edc(e|1 dB)AF D(A,G,A,):|2 dBAF D3g||
|:fedf ecAF|GBA(F GE)EF|DFA(F EG)BG|FAd(f e2)fg|afb(f gf)ec|
def(d AG)FA|(3GGG (BG) (3FFF (AF)|1 EDCE D3g:|2 EDCE D(A,G,A,)||
"Last time" EDCE D2||

